/* XPM */
static char * by22+++_xpm[] = {
"22 22 114 2",
"  	c #FFFFFF",
". 	c #F1AFB0",
"+ 	c #E9898F",
"@ 	c #EC797F",
"# 	c #EA8A93",
"$ 	c #F1A4A7",
"% 	c #F0B4B7",
"& 	c #E5666C",
"* 	c #E9797E",
"= 	c #E25F69",
"- 	c #EFADAD",
"; 	c #F2B1B4",
"> 	c #EB7275",
", 	c #E97B81",
"' 	c #E87076",
") 	c #F0AAAB",
"! 	c #F0A5A7",
"~ 	c #E36164",
"{ 	c #E47073",
"] 	c #E15D66",
"^ 	c #EE9FA0",
"/ 	c #F0AFB2",
"( 	c #E66970",
"_ 	c #E97A7E",
": 	c #E56770",
"< 	c #EEA7A9",
"[ 	c #F9D5D7",
"} 	c #F3ABAF",
"| 	c #EC8387",
"1 	c #E96E73",
"2 	c #E86B71",
"3 	c #E96C72",
"4 	c #EB8186",
"5 	c #F3A9AD",
"6 	c #F7D0D1",
"7 	c #EC7E83",
"8 	c #DD1C24",
"9 	c #E3454C",
"0 	c #EB7B7E",
"a 	c #E44C52",
"b 	c #DE242C",
"c 	c #EA7176",
"d 	c #E8676C",
"e 	c #EA787D",
"f 	c #E55258",
"g 	c #F0989B",
"h 	c #EB777D",
"i 	c #EE8F93",
"j 	c #DE1F28",
"k 	c #EB7579",
"l 	c #E34249",
"m 	c #DE282F",
"n 	c #F9D2D5",
"o 	c #FCF3F5",
"p 	c #F5BDBF",
"q 	c #E1373E",
"r 	c #E44951",
"s 	c #E76369",
"t 	c #DD1F27",
"u 	c #F1A7AA",
"v 	c #FDF6F6",
"w 	c #F5BEC0",
"x 	c #FBE2E3",
"y 	c #DF272E",
"z 	c #E76065",
"A 	c #E65D63",
"B 	c #F3AAAE",
"C 	c #FDF1F1",
"D 	c #FCECEC",
"E 	c #FADBDD",
"F 	c #F3C4C6",
"G 	c #EC8085",
"H 	c #EA757A",
"I 	c #E8666B",
"J 	c #EB7F83",
"K 	c #EB7B81",
"L 	c #EC8285",
"M 	c #F7D4D6",
"N 	c #FDF2F3",
"O 	c #FCF0F1",
"P 	c #FEF9F9",
"Q 	c #F4B3B5",
"R 	c #E96F74",
"S 	c #E76167",
"T 	c #E1333A",
"U 	c #E4454B",
"V 	c #EE8A8D",
"W 	c #FBE9EA",
"X 	c #EFA6A9",
"Y 	c #F7D2D4",
"Z 	c #E44F54",
"` 	c #E75F64",
" .	c #E3454B",
"..	c #DF2A32",
"+.	c #E02D34",
"@.	c #F3ACAF",
"#.	c #E75B61",
"$.	c #F2ACAF",
"%.	c #DE2831",
"&.	c #E65158",
"*.	c #EB797D",
"=.	c #DE232B",
"-.	c #E8696E",
";.	c #E75F65",
">.	c #EB777C",
",.	c #F0979B",
"'.	c #E24249",
").	c #E23D43",
"!.	c #EF9195",
"~.	c #F0B2B6",
"{.	c #E87073",
"].	c #EA848A",
"^.	c #E56D72",
"/.	c #EFABAE",
"      . + @ # $                             ",
"      % & * = -                             ",
"      ; > , ' )                             ",
"      ! ~ { ] ^                             ",
"      / ( _ : <                             ",
"  [ } | 1 2 3 4 5 6                         ",
"  7 8 8 9 0 3 a b c                         ",
"d e 8 f g h i j 8 k d d d d d d d d d d d d ",
"8 l m n o p   q 8 r 8 8 8 8 8 8 8 8 8 8 8 8 ",
"8 s t u v w x y 8 z 8 8 8 8 8 8 8 8 8 8 8 8 ",
"8 A B C D E F G H I 8 8 8 8 8 8 8 8 8 8 8 8 ",
"8 J K L M N O P Q R 8 8 8 8 8 8 8 8 8 8 8 8 ",
"8 S T U V W X Y Z ` 8 8 8 8 8 8 8 8 8 8 8 8 ",
"8  ...8 +.@.#.$.%.&.8 8 8 8 8 8 8 8 8 8 8 8 ",
"d d *.=.8 8 -.;.>.d d d d d d d d d d d d d ",
"      ,.'.8 ).!.                            ",
"      ~.{.].^./.                            ",
"      / ( _ : <                             ",
"      ! ~ { ] ^                             ",
"      ; > , ' )                             ",
"      % & * = -                             ",
"      . + @ # $                             "};
