/* XPM */
static char * by22++Ł_xpm[] = {
"22 22 172 2",
"  	c None",
". 	c #BFBFBF",
"+ 	c #FAFAFA",
"@ 	c #F9F9F9",
"# 	c #A0A0A0",
"$ 	c #FDFDFD",
"% 	c #FEFEFE",
"& 	c #FFFFFF",
"* 	c #E2807B",
"= 	c #D63327",
"- 	c #D52B1E",
"; 	c #D73A2F",
"> 	c #DD5E56",
", 	c #FEFDFC",
"' 	c #C1C1C1",
") 	c #F4D5D3",
"! 	c #DD574D",
"~ 	c #EFBFBC",
"{ 	c #DD5F57",
"] 	c #9F9F9F",
"^ 	c #ECB3B0",
"/ 	c #E2776F",
"( 	c #E99E99",
"_ 	c #E38883",
": 	c #FDFDFE",
"< 	c #C8C8BF",
"[ 	c #FFFFFD",
"} 	c #E5908A",
"| 	c #E89792",
"1 	c #E47E76",
"2 	c #EBAEA9",
"3 	c #FFFFFC",
"4 	c #A3A3A0",
"5 	c #C81000",
"6 	c #FF1700",
"7 	c #FF1A00",
"8 	c #FF1B02",
"9 	c #FF1F07",
"0 	c #FF2310",
"a 	c #FF291A",
"b 	c #FF2E22",
"c 	c #DE5046",
"d 	c #EEB9B5",
"e 	c #DE5D53",
"f 	c #EEBAB7",
"g 	c #E76259",
"h 	c #FF4943",
"i 	c #FF4741",
"j 	c #FF433D",
"k 	c #FF3F39",
"l 	c #A73835",
"m 	c #C31F0A",
"n 	c #FD2C10",
"o 	c #FE2E14",
"p 	c #FF311A",
"q 	c #FE3520",
"r 	c #FE3B28",
"s 	c #FF4030",
"t 	c #FE4436",
"u 	c #D7392D",
"v 	c #F4D9D8",
"w 	c #E89993",
"x 	c #D63326",
"y 	c #EE6C64",
"z 	c #FF5E55",
"A 	c #FE5E56",
"B 	c #FF5D55",
"C 	c #FE5B53",
"D 	c #FF584F",
"E 	c #FE544B",
"F 	c #A94A46",
"G 	c #C4310E",
"H 	c #FD4517",
"I 	c #FE471D",
"J 	c #FE4B25",
"K 	c #FE4F2E",
"L 	c #FE5436",
"M 	c #FE583D",
"N 	c #FA6653",
"O 	c #D8392D",
"P 	c #F4DAD9",
"Q 	c #E46359",
"R 	c #FA7567",
"S 	c #FE7262",
"T 	c #FE7364",
"U 	c #FE7565",
"V 	c #FE7363",
"W 	c #FE7161",
"X 	c #FE6F5F",
"Y 	c #FD6D5B",
"Z 	c #AD5D54",
"` 	c #C74714",
" .	c #FE6020",
"..	c #FE6228",
"+.	c #FE6430",
"@.	c #FE6939",
"#.	c #FE6D42",
"$.	c #FD714B",
"%.	c #DD5447",
"&.	c #FE866B",
"*.	c #FE896F",
"=.	c #FE8A71",
"-.	c #FE8B73",
";.	c #FE8C75",
">.	c #FE8C74",
",.	c #FE8B72",
"'.	c #FE8971",
").	c #FE876F",
"!.	c #FD856A",
"~.	c #B37063",
"{.	c #BE591C",
"].	c #FE832B",
"^.	c #FF8232",
"/.	c #FF843A",
"(.	c #FF8845",
"_.	c #FB8A58",
":.	c #E56F5F",
"<.	c #FF9F78",
"[.	c #FFA27E",
"}.	c #FFA480",
"|.	c #FFA582",
"1.	c #FFA684",
"2.	c #FFA683",
"3.	c #FFA27D",
"4.	c #FEA278",
"5.	c #B38271",
"6.	c #AC642E",
"7.	c #B6682D",
"8.	c #B96A38",
"9.	c #BA7045",
"0.	c #BC754F",
"a.	c #DA6559",
"b.	c #E99A94",
"c.	c #E37870",
"d.	c #D87F72",
"e.	c #C99986",
"f.	c #CA9C8B",
"g.	c #CC9F8E",
"h.	c #CCA190",
"i.	c #D49B8D",
"j.	c #DB5146",
"k.	c #CDA190",
"l.	c #CA9C89",
"m.	c #C99A84",
"n.	c #BF8E7C",
"o.	c #DD625A",
"p.	c #EFBCB9",
"q.	c #DD564C",
"r.	c #F0D1CF",
"s.	c #E8A6A3",
"t.	c #E28680",
"u.	c #FFFEFE",
"v.	c #D7382D",
"w.	c #F5DDDD",
"x.	c #D73629",
"y.	c #FCF4F4",
"z.	c #DD5C54",
"A.	c #EBAEAB",
"B.	c #F8E7E7",
"C.	c #D94236",
"D.	c #F2D1D0",
"E.	c #D8443A",
"F.	c #FBF2F2",
"G.	c #F9EAE9",
"H.	c #F8E7E6",
"I.	c #F5DAD9",
"J.	c #EEBEBB",
"K.	c #D52C1F",
"L.	c #F3D2D0",
"M.	c #DB544B",
"N.	c #D62F23",
"O.	c #FBF1F1",
"                                            ",
"                                            ",
"                                            ",
". + @ @ @ @ @ @ @ @ @ @ @ @ @ @ @ @ @ @ @ # ",
". $ % & % % & * = - - - ; > , % % & % & % # ",
"' $ % % % % % % ) ! ~ { % % % % % % % % $ ] ",
"' $ % % % % % % ^ / ( _ % % % % % % % % : # ",
"< [ [ [ [ [ [ [ } | 1 2 [ 3 [ [ [ [ [ [ [ 4 ",
"5 6 7 8 9 0 a b c d e f f g h h h h i j k l ",
"m n o p q r s t u v w f x y z A A B C D E F ",
"G H I J K L M N O P w Q R S T U U V W X Y Z ",
"`  ...+.@.#.$.f w f %.&.*.=.-.;.>.,.'.).!.~.",
"{.].^./.(._.f f / w :.<.[.}.|.1.2.|.}.3.4.5.",
"6.7.8.9.0.f f a.b.c.d.e.f.g.h.i.j.k.g.l.m.n.",
". + @ @ @ @ @ o.p.q.r.@ @ @ @ s.t.@ @ @ @ # ",
". $ % & % % u.v.w.x.y.% % % & z.A.& % & % # ",
"' $ % % % % B.C.D.E.F.G.H.I.J.K.L.% % % $ ] ",
"' $ % % F.M.N.- - - - - - - - - O.% % % : # ",
"< [ [ [ [ [ [ [ [ [ [ 3 [ 3 [ [ [ [ [ [ [ 4 ",
"                                            ",
"                                            ",
"                                            "};
