/* XPM */
static char * by++_xpm[] = {
"22 22 139 2",
"  	c None",
". 	c #BFBFBF",
"+ 	c #FAFAFA",
"@ 	c #F9F9F9",
"# 	c #A0A0A0",
"$ 	c #FDFDFD",
"% 	c #FEFEFE",
"& 	c #FFFFFF",
"* 	c #C1C1C1",
"= 	c #9F9F9F",
"- 	c #FDFDFE",
"; 	c #C8C8BF",
"> 	c #FFFFFD",
", 	c #FFFFFC",
"' 	c #A3A3A0",
") 	c #C81000",
"! 	c #FF1700",
"~ 	c #FF1A00",
"{ 	c #FF1B02",
"] 	c #FF1F07",
"^ 	c #FF2310",
"/ 	c #FF291A",
"( 	c #FF2E22",
"_ 	c #FF3328",
": 	c #FF382F",
"< 	c #FF3D35",
"[ 	c #FF4139",
"} 	c #FF443D",
"| 	c #FF4841",
"1 	c #FF4943",
"2 	c #FF4741",
"3 	c #FF433D",
"4 	c #FF3F39",
"5 	c #A73835",
"6 	c #C31F0A",
"7 	c #FD2C10",
"8 	c #FE2E14",
"9 	c #FF311A",
"0 	c #FE3520",
"a 	c #FE3B28",
"b 	c #FF4030",
"c 	c #FE4436",
"d 	c #FF4A3C",
"e 	c #FF4F43",
"f 	c #FF5348",
"g 	c #FE574C",
"h 	c #FF5A50",
"i 	c #FE5C53",
"j 	c #FF5E55",
"k 	c #FE5E56",
"l 	c #FF5D55",
"m 	c #FE5B53",
"n 	c #FF584F",
"o 	c #FE544B",
"p 	c #A94A46",
"q 	c #C4310E",
"r 	c #FD4517",
"s 	c #FE471D",
"t 	c #FE4B25",
"u 	c #FE4F2E",
"v 	c #FE5436",
"w 	c #FE583D",
"x 	c #FE5D45",
"y 	c #FE624C",
"z 	c #FE6651",
"A 	c #FE6A57",
"B 	c #FE6E5C",
"C 	c #FE7160",
"D 	c #FE7262",
"E 	c #FE7364",
"F 	c #FE7565",
"G 	c #FE7363",
"H 	c #FE7161",
"I 	c #FE6F5F",
"J 	c #FD6D5B",
"K 	c #AD5D54",
"L 	c #C74714",
"M 	c #FE6020",
"N 	c #FE6228",
"O 	c #FE6430",
"P 	c #FE6939",
"Q 	c #FE6D42",
"R 	c #FE7149",
"S 	c #FE7652",
"T 	c #FE7A59",
"U 	c #FE7E5F",
"V 	c #FE8266",
"W 	c #FE866B",
"X 	c #FE896F",
"Y 	c #FE8A71",
"Z 	c #FE8B73",
"` 	c #FE8C75",
" .	c #FE8C74",
"..	c #FE8B72",
"+.	c #FE8971",
"@.	c #FE876F",
"#.	c #FD856A",
"$.	c #B37063",
"%.	c #BE591C",
"&.	c #FE832B",
"*.	c #FF8232",
"=.	c #FF843A",
"-.	c #FF8845",
";.	c #FF8B4E",
">.	c #FF8F57",
",.	c #FF925F",
"'.	c #FF9666",
").	c #FF996D",
"!.	c #FF9C73",
"~.	c #FF9F78",
"{.	c #FFA27E",
"].	c #FFA480",
"^.	c #FFA582",
"/.	c #FFA684",
"(.	c #FFA683",
"_.	c #FFA27D",
":.	c #FEA278",
"<.	c #B38271",
"[.	c #AC642E",
"}.	c #B6682D",
"|.	c #B96A38",
"1.	c #BA7045",
"2.	c #BC754F",
"3.	c #BE7B5A",
"4.	c #BF8063",
"5.	c #C2856A",
"6.	c #C38A72",
"7.	c #C58F79",
"8.	c #C79580",
"9.	c #C99986",
"0.	c #CA9C8B",
"a.	c #CC9F8E",
"b.	c #CCA190",
"c.	c #CEA292",
"d.	c #CEA392",
"e.	c #CDA190",
"f.	c #CA9C89",
"g.	c #C99A84",
"h.	c #BF8E7C",
"                                            ",
"                                            ",
"                                            ",
". + @ @ @ @ @ @ @ @ @ @ @ @ @ @ @ @ @ @ @ # ",
". $ % & % % & % % & & % % % & % % & % & % # ",
"* $ % % % % % % % % % % % % % % % % % % $ = ",
"* $ % % % % % % % % % % % % % % % % % % - # ",
"; > > > > > > > > > > , > , > > > > > > > ' ",
") ! ~ { ] ^ / ( _ : < [ } | 1 1 1 1 2 3 4 5 ",
"6 7 8 9 0 a b c d e f g h i j k k l m n o p ",
"q r s t u v w x y z A B C D E F F G H I J K ",
"L M N O P Q R S T U V W X Y Z `  ...+.@.#.$.",
"%.&.*.=.-.;.>.,.'.).!.~.{.].^./.(.^.]._.:.<.",
"[.}.|.1.2.3.4.5.6.7.8.9.0.a.b.c.d.e.a.f.g.h.",
". + @ @ @ @ @ @ @ @ @ @ @ @ @ @ @ @ @ @ @ # ",
". $ % & % % & % % & & % % % & % % & % & % # ",
"* $ % % % % % % % % % % % % % % % % % % $ = ",
"* $ % % % % % % % % % % % % % % % % % % - # ",
"; > > > > > > > > > > , > , > > > > > > > ' ",
"                                            ",
"                                            ",
"                                            "};
